X: 17
T: Prenes in Gre
T: for two
N: Drone: D/A
K: C major
M: 6/8
L: 1/8
P: A (3x)
D2D E2F | G2G G2G | c2c cB2 | A6 "^(3)":| \
P: B
A2A A2A | G2G G2G | A2G FE2 | D6 |:  \
P: C
F2G | A2G FE2 | D6 :| 
P: D
D2D E2F | G2G G2G | c2c cB2 | A6 || \
P: E
A2A A2A | G2G G2G | A2G FE2 | D6 |] 


